X:1
T:Title
L:1/4
M:4/4
I:linebreak $
K:G
V:1 treble nm="Voice"
V:1
"Em" B E G A | B3/2 c/ B G |"D" A3/2 B/ A F |"Em" B E G B/c/ |"Em" B E G A | B3/2 c/ B G | %6
"D" A F B F |1"Em" E2 E B/c/ :|2"Em" E2 E B/d/ |:"Em" e B B d/e/ |"D" f e d B |"Bm" d3/2 e/ d B | %12
"D" A F A B/d/ |"Em" e B B d/e/ |"D" f e d B |"Bm" d B A F |1"Em" E2 E B/d/ :|2"Em" E2 E B/c/ |] %18
